images/organizers/superheroes.svg

<svg width="247" height="51" viewBox="0 0 247 51" fill="none" xmlns="http://www.w3.org/2000/svg">
<path d="M0 23.4768L3.3912 18.5212C5.37738 20.6105 8.10744 21.8303 10.9875 21.9155C12.5136 21.9155 13.9943 21.3045 13.9943 19.9581C13.9943 19.019 13.124 18.4081 11.824 17.8989C9.85878 17.2748 7.92701 16.5497 6.03636 15.7266C4.6921 15.1378 3.55364 14.1614 2.76639 12.922C1.97913 11.6826 1.57878 10.2365 1.61646 8.76834C1.61646 4.06161 5.70851 0.50894 11.5753 0.50894C15.0466 0.493294 18.4139 1.69413 21.0933 3.90321L17.9621 9.05119C16.1657 7.65398 13.9735 6.86185 11.6997 6.78834C9.74408 6.78834 8.83973 7.62559 8.83973 8.53073C8.83973 9.66215 9.97013 10.16 10.9649 10.522C12.3892 11.0651 14.5935 11.7892 16.4021 12.5473C19.2168 13.7466 21.5002 15.7379 21.5002 19.5734C21.5002 24.4612 17.4421 28.127 10.8971 28.127C8.85431 28.1755 6.82491 27.7856 4.94529 26.9835C3.06567 26.1814 1.3794 24.9857 0 23.4768Z" fill="black"/>
<path d="M24.2588 18.9168V7.60254H30.6116V18.9168C30.5857 19.354 30.6493 19.792 30.7986 20.2037C30.9479 20.6154 31.1798 20.9923 31.4799 21.3111C31.78 21.6298 32.1421 21.8838 32.5439 22.0574C32.9457 22.231 33.3787 22.3206 33.8163 22.3206C34.254 22.3206 34.6869 22.231 35.0887 22.0574C35.4905 21.8838 35.8525 21.6298 36.1527 21.3111C36.4528 20.9923 36.6847 20.6154 36.834 20.2037C36.9833 19.792 37.0469 19.354 37.021 18.9168V7.60254H43.4304V18.9168C43.4304 24.8907 39.734 28.1492 33.7994 28.1492C27.8648 28.1492 24.2588 24.8907 24.2588 18.9168Z" fill="black"/>
<path d="M69.1114 17.6166C69.1114 23.4095 65.0533 28.1502 59.3787 28.1502C57.2855 28.1817 55.2609 27.4035 53.7267 25.9779V35.8665H47.3174V7.64878H53.625V9.49301C54.3756 8.73232 55.2724 8.13165 56.2613 7.7272C57.2501 7.32274 58.3106 7.12287 59.3787 7.13965C65.0872 7.13965 69.1114 11.8124 69.1114 17.6166ZM62.6003 17.6845C62.6003 16.4842 62.124 15.3331 61.276 14.4844C60.428 13.6356 59.2779 13.1588 58.0787 13.1588C56.8795 13.1588 55.7294 13.6356 54.8815 14.4844C54.0335 15.3331 53.5571 16.4842 53.5571 17.6845C53.5571 18.8848 54.0335 20.0359 54.8815 20.8847C55.7294 21.7334 56.8795 22.2102 58.0787 22.2102C59.2779 22.2102 60.428 21.7334 61.276 20.8847C62.124 20.0359 62.6003 18.8848 62.6003 17.6845Z" fill="black"/>
<path d="M92.0379 19.7101H77.7722C78.1187 20.7078 78.7889 21.5606 79.676 22.1327C80.5631 22.7048 81.616 22.9632 82.6668 22.8668C84.8093 22.8142 86.8966 22.1765 88.7032 21.0226L91.2013 25.3333C88.6147 27.1442 85.5294 28.105 82.3729 28.0826C74.9123 28.0826 71.329 23.127 71.329 17.6509C71.2818 16.2424 71.5272 14.8394 72.0497 13.5307C72.5723 12.2221 73.3606 11.0362 74.3647 10.0482C75.3688 9.06024 76.5668 8.29161 77.883 7.79101C79.1993 7.29041 80.6049 7.06872 82.0112 7.13998C87.7649 7.13998 92.2527 10.8058 92.2527 17.1418C92.2496 18.0022 92.1777 18.8611 92.0379 19.7101ZM77.7044 15.3202H86.1711C85.9375 14.4042 85.3945 13.5973 84.6342 13.0364C83.8739 12.4755 82.9432 12.1951 81.9999 12.2427C81.0433 12.2015 80.1004 12.4821 79.3218 13.0399C78.5433 13.5977 77.9738 14.4005 77.7044 15.3202Z" fill="black"/>
<path d="M95.3379 7.64778H101.453V10.1143C102 9.1899 102.779 8.42535 103.713 7.89718C104.648 7.36901 105.704 7.09574 106.778 7.10471C107.635 7.11439 108.481 7.29918 109.264 7.64778L108.767 13.7348C107.917 13.435 107.023 13.2745 106.122 13.2597C103.624 13.2597 101.713 14.7079 101.713 19.0186V27.64H95.3379V7.64778Z" fill="black"/>
<path d="M111.491 0H117.72V10.3638C118.387 9.31885 119.316 8.4677 120.415 7.89578C121.514 7.32386 122.744 7.05126 123.982 7.10534C127.927 7.10534 131.68 9.75287 131.68 15.3647V27.6407H125.282V17.0619C125.282 14.4143 123.937 12.9322 121.767 12.9322C121.221 12.9281 120.68 13.0388 120.179 13.2572C119.679 13.4756 119.229 13.7967 118.861 14.1999C118.492 14.6031 118.212 15.0792 118.039 15.5976C117.866 16.1159 117.803 16.6649 117.855 17.209V27.6407H111.491V0Z" fill="black"/>
<path d="M155.294 19.7101H141.039C141.382 20.708 142.05 21.5617 142.935 22.1342C143.821 22.7066 144.873 22.9646 145.923 22.8668C148.065 22.8142 150.152 22.1765 151.959 21.0226L154.457 25.3333C151.871 27.1442 148.785 28.105 145.629 28.0826C138.168 28.0826 134.585 23.127 134.585 17.6509C134.538 16.2424 134.783 14.8394 135.306 13.5307C135.828 12.2221 136.616 11.0362 137.621 10.0482C138.625 9.06024 139.823 8.29161 141.139 7.79101C142.455 7.29041 143.861 7.06872 145.267 7.13998C151.021 7.13998 155.509 10.8058 155.509 17.1418C155.505 18.0022 155.434 18.8611 155.294 19.7101ZM140.96 15.3202H149.427C149.194 14.4062 148.652 13.6008 147.895 13.0401C147.137 12.4794 146.209 12.1977 145.267 12.2427C144.309 12.2029 143.366 12.4839 142.586 13.0413C141.806 13.5987 141.234 14.4007 140.96 15.3202Z" fill="black"/>
<path d="M158.595 7.64778H164.71V10.1143C165.257 9.1899 166.036 8.42535 166.97 7.89718C167.905 7.36901 168.961 7.09574 170.034 7.10471C170.895 7.11443 171.745 7.29919 172.533 7.64778L172.024 13.7348C171.173 13.435 170.28 13.2745 169.379 13.2597C166.881 13.2597 164.97 14.7079 164.97 19.0186V27.64H158.595V7.64778Z" fill="black"/>
<path d="M173.301 17.65C173.392 14.8226 174.578 12.1414 176.609 10.1736C178.639 8.20573 181.355 7.10547 184.181 7.10547C187.007 7.10547 189.723 8.20573 191.753 10.1736C193.784 12.1414 194.97 14.8226 195.061 17.65C195.061 23.4769 190.743 28.1836 184.164 28.1836C177.585 28.1836 173.301 23.4769 173.301 17.65ZM188.686 17.65C188.672 16.7579 188.396 15.8897 187.891 15.1544C187.386 14.4192 186.675 13.8497 185.848 13.5175C185.02 13.1854 184.114 13.1054 183.241 13.2876C182.368 13.4698 181.569 13.9061 180.943 14.5417C180.318 15.1772 179.894 15.9837 179.725 16.8596C179.556 17.7356 179.649 18.6421 179.993 19.4651C180.338 20.2881 180.917 20.991 181.659 21.4853C182.401 21.9797 183.273 22.2435 184.164 22.2436C184.766 22.2437 185.363 22.1234 185.918 21.8896C186.473 21.6558 186.976 21.3133 187.398 20.8822C187.819 20.4512 188.15 19.9402 188.371 19.3793C188.592 18.8184 188.699 18.2189 188.686 17.6161V17.65Z" fill="black"/>
<path d="M217.975 19.7101H203.72C204.065 20.7069 204.733 21.5594 205.618 22.1316C206.503 22.7038 207.554 22.9626 208.604 22.8668C210.75 22.8157 212.841 22.1779 214.651 21.0226L217.15 25.3333C214.562 27.1421 211.477 28.1027 208.321 28.0826C200.861 28.0826 197.277 23.127 197.277 17.6509C197.23 16.2424 197.475 14.8394 197.998 13.5307C198.521 12.2221 199.309 11.0362 200.313 10.0482C201.317 9.06024 202.515 8.29161 203.831 7.79101C205.148 7.29041 206.553 7.06872 207.959 7.13998C213.713 7.13998 218.201 10.8058 218.201 17.1418C218.194 18.0025 218.118 18.8613 217.975 19.7101ZM203.641 15.3202H212.119C211.886 14.4042 211.343 13.5973 210.582 13.0364C209.822 12.4755 208.891 12.1951 207.948 12.2427C206.991 12.2029 206.047 12.4839 205.267 13.0413C204.487 13.5987 203.915 14.4007 203.641 15.3202Z" fill="black"/>
<path d="M219.729 24.7448L222.588 20.434C224.225 21.9396 226.337 22.8242 228.557 22.9345C229.687 22.9345 230.693 22.5272 230.693 21.656C230.693 21.26 230.479 20.8979 229.563 20.5246C228.647 20.1512 225.799 19.3253 224.601 18.7822C223.49 18.3805 222.533 17.6407 221.864 16.6666C221.195 15.6925 220.847 14.5332 220.87 13.3513C220.87 9.58369 224.092 7.01536 229.122 7.01536C231.841 6.95637 234.49 7.88027 236.583 9.61763L233.836 13.8265C232.428 12.8056 230.756 12.2125 229.02 12.1181C227.969 12.1181 227.212 12.5933 227.212 13.2495C227.212 13.9057 227.619 14.3809 229.02 14.6864C230.642 15.1103 232.217 15.694 233.723 16.4288C236.153 17.6621 237.114 19.2121 237.114 21.4976C237.114 25.3444 233.892 28.1617 228.534 28.1617C225.269 28.201 222.114 26.9769 219.729 24.7448Z" fill="black"/>
<path d="M239.497 24.7437C239.497 24.2843 239.589 23.8296 239.77 23.4071C239.95 22.9846 240.214 22.6031 240.546 22.2858C240.878 21.9684 241.27 21.7218 241.7 21.5609C242.13 21.3999 242.588 21.328 243.047 21.3494C243.958 21.3494 244.832 21.7118 245.476 22.3568C246.121 23.0019 246.483 23.8767 246.483 24.7889C246.483 25.7012 246.121 26.576 245.476 27.221C244.832 27.8661 243.958 28.2285 243.047 28.2285C242.583 28.239 242.123 28.1566 241.692 27.9861C241.261 27.8156 240.868 27.5604 240.537 27.2356C240.206 26.9108 239.944 26.5229 239.765 26.095C239.587 25.667 239.495 25.2075 239.497 24.7437Z" fill="black"/>
<path d="M68.246 49.0449V38.7407H69.8099L73.4639 45.4786L77.1033 38.7407H78.6379V49.0449H76.9425V42.1023L73.9901 47.481H72.8939L69.9414 42.1316V49.0449H68.246ZM83.0836 49.0449L87.7461 38.7407H89.2807L93.9432 49.0449H92.0432L91.02 46.6625H85.9922L84.9837 49.0449H83.0836ZM88.4915 40.7723L86.6353 45.1717H90.3769L88.5207 40.7723H88.4915ZM98.3593 49.0449V38.7407H102.832C103.962 38.7407 104.834 39.0135 105.448 39.5592C106.062 40.0951 106.369 40.8502 106.369 41.8246C106.369 42.5944 106.169 43.2326 105.77 43.7393C105.37 44.2363 104.795 44.5724 104.045 44.7478C104.542 44.9037 104.951 45.2789 105.273 45.8733L106.997 49.0449H104.936L103.153 45.7563C102.978 45.4348 102.768 45.2155 102.525 45.0986C102.291 44.9817 101.989 44.9232 101.619 44.9232H100.23V49.0449H98.3593ZM100.23 43.5347H102.51C103.874 43.5347 104.556 42.9793 104.556 41.8685C104.556 40.7674 103.874 40.2169 102.51 40.2169H100.23V43.5347ZM111.668 49.0449V38.7407H113.539V43.3009H113.568L118.113 38.7407H120.394L115.38 43.6955L120.642 49.0449H118.333L113.568 44.2801H113.539V49.0449H111.668ZM124.662 49.0449V38.7407H131.517V40.2315H126.46V43.067H131.196V44.5578H126.46V47.5541H131.517V49.0449H124.662ZM139.085 49.0449V40.3046H135.548V38.7407H144.493V40.3046H140.956V49.0449H139.085ZM148.967 49.0449V38.7407H150.838V49.0449H148.967ZM156.366 49.0449V38.7407H157.769L163.309 45.9317V38.7407H165.048V49.0449H163.66L158.106 41.8246V49.0449H156.366ZM175.543 49.1911C174.403 49.1911 173.438 48.9767 172.649 48.548C171.87 48.1192 171.275 47.5102 170.866 46.721C170.457 45.9317 170.252 44.9963 170.252 43.9147C170.252 42.8234 170.462 41.8831 170.881 41.0938C171.3 40.2948 171.904 39.681 172.693 39.2522C173.482 38.8138 174.427 38.5945 175.529 38.5945C176.25 38.5945 176.927 38.7017 177.56 38.9161C178.194 39.1207 178.72 39.4081 179.139 39.7784L178.51 41.24C178.052 40.8795 177.585 40.6213 177.107 40.4654C176.63 40.3095 176.103 40.2315 175.529 40.2315C174.437 40.2315 173.609 40.5482 173.044 41.1815C172.488 41.8149 172.211 42.726 172.211 43.9147C172.211 45.1132 172.498 46.0243 173.073 46.6479C173.648 47.2715 174.501 47.5833 175.631 47.5833C175.952 47.5833 176.279 47.559 176.61 47.5102C176.951 47.4518 177.287 47.369 177.619 47.2618V44.8648H175.251V43.4762H179.183V48.4311C178.705 48.6649 178.14 48.85 177.487 48.9865C176.834 49.1229 176.186 49.1911 175.543 49.1911Z" fill="black"/>
</svg>

<svg width="247" height="51" fill="none" xmlns="http://www.w3.org/2000/svg"><path d="M0 23.477l3.391-4.956a10.927 10.927 0 007.597 3.395c1.526 0 3.006-.611 3.006-1.958 0-.939-.87-1.55-2.17-2.06a59.982 59.982 0 01-5.788-2.171 7.383 7.383 0 01-4.42-6.959c0-4.706 4.093-8.26 9.96-8.26a14.857 14.857 0 019.517 3.395l-3.13 5.148A10.767 10.767 0 0011.7 6.788c-1.956 0-2.86.838-2.86 1.743 0 1.131 1.13 1.629 2.125 1.991 1.424.543 3.629 1.267 5.437 2.025 2.815 1.2 5.098 3.19 5.098 7.026 0 4.888-4.058 8.554-10.603 8.554A14.299 14.299 0 010 23.477zm24.259-4.56V7.603h6.353v11.314a3.217 3.217 0 001.932 3.14 3.208 3.208 0 004.477-3.14V7.603h6.41v11.314c0 5.974-3.697 9.232-9.632 9.232-5.934 0-9.54-3.258-9.54-9.232zm44.852-1.3c0 5.793-4.058 10.533-9.732 10.533a8.124 8.124 0 01-5.652-2.172v9.889h-6.41V7.649h6.308v1.844a7.91 7.91 0 015.754-2.353c5.708 0 9.732 4.672 9.732 10.477zm-6.51.067a4.527 4.527 0 00-4.522-4.525c-1.2 0-2.35.477-3.197 1.325a4.527 4.527 0 003.197 7.726 4.52 4.52 0 004.521-4.526zm29.437 2.026H77.772a4.728 4.728 0 004.895 3.157 11.75 11.75 0 006.036-1.844l2.498 4.31a15.205 15.205 0 01-8.828 2.75c-7.46 0-11.044-4.956-11.044-10.432a10.192 10.192 0 013.036-7.603A10.173 10.173 0 0182.01 7.14c5.754 0 10.242 3.666 10.242 10.002-.003.86-.075 1.72-.215 2.568zm-14.334-4.39h8.467A4.096 4.096 0 0082 12.243a4.282 4.282 0 00-4.296 3.077zm17.634-7.672h6.115v2.466a6.125 6.125 0 015.325-3.01c.857.01 1.703.195 2.486.544l-.497 6.087c-.85-.3-1.744-.46-2.645-.475-2.498 0-4.409 1.448-4.409 5.759v8.621h-6.375V7.648zM111.491 0h6.229v10.364a7.069 7.069 0 016.262-3.259c3.945 0 7.698 2.648 7.698 8.26V27.64h-6.398V17.06c0-2.647-1.345-4.129-3.515-4.129a3.9 3.9 0 00-3.912 4.277V27.64h-6.364V0zm43.803 19.71h-14.255a4.702 4.702 0 004.884 3.157 11.75 11.75 0 006.036-1.844l2.498 4.31a15.203 15.203 0 01-8.828 2.75c-7.461 0-11.044-4.956-11.044-10.432a10.187 10.187 0 016.554-9.86 10.18 10.18 0 014.128-.651c5.754 0 10.242 3.666 10.242 10.002a16.25 16.25 0 01-.215 2.568zm-14.334-4.39h8.467a4.09 4.09 0 00-4.16-3.078 4.303 4.303 0 00-4.307 3.078zm17.635-7.672h6.115v2.466a6.124 6.124 0 015.324-3.01c.861.01 1.711.195 2.499.544l-.509 6.087a8.374 8.374 0 00-2.645-.475c-2.498 0-4.409 1.448-4.409 5.759v8.621h-6.375V7.648zm14.706 10.002a10.898 10.898 0 013.308-7.476 10.88 10.88 0 0115.144 0 10.898 10.898 0 013.308 7.476c0 5.827-4.318 10.534-10.897 10.534-6.579 0-10.863-4.707-10.863-10.534zm15.385 0a4.533 4.533 0 00-2.838-4.132 4.52 4.52 0 00-6.123 3.342 4.53 4.53 0 001.934 4.625 4.52 4.52 0 006.712-2.106c.221-.56.328-1.16.315-1.763v.034zm29.289 2.06H203.72a4.71 4.71 0 004.884 3.157 11.76 11.76 0 006.047-1.844l2.499 4.31a15.243 15.243 0 01-8.829 2.75c-7.46 0-11.044-4.956-11.044-10.432a10.187 10.187 0 016.554-9.86c1.317-.5 2.722-.722 4.128-.651 5.754 0 10.242 3.666 10.242 10.002-.007.86-.083 1.72-.226 2.568zm-14.334-4.39h8.478a4.09 4.09 0 00-4.171-3.077 4.305 4.305 0 00-4.307 3.077zm16.088 9.425l2.859-4.311a9.515 9.515 0 005.969 2.5c1.13 0 2.136-.407 2.136-1.278 0-.396-.214-.758-1.13-1.131-.916-.374-3.764-1.2-4.962-1.743a5.662 5.662 0 01-3.731-5.43c0-3.768 3.222-6.337 8.252-6.337a11.298 11.298 0 017.461 2.603l-2.747 4.208a9.04 9.04 0 00-4.816-1.708c-1.051 0-1.808.475-1.808 1.131 0 .657.407 1.132 1.808 1.437a25.33 25.33 0 014.703 1.743c2.43 1.233 3.391 2.783 3.391 5.069 0 3.846-3.222 6.664-8.58 6.664a12.663 12.663 0 01-8.805-3.417zm19.768-.001a3.393 3.393 0 013.55-3.395 3.44 3.44 0 010 6.88 3.467 3.467 0 01-3.282-2.134 3.481 3.481 0 01-.268-1.351zM68.246 49.045V38.74h1.564l3.654 6.738 3.64-6.738h1.534v10.304h-1.696v-6.943L73.99 47.48h-1.096l-2.953-5.35v6.914h-1.695zm14.838 0l4.662-10.304h1.535l4.662 10.304h-1.9l-1.023-2.383h-5.028l-1.008 2.383h-1.9zm5.407-8.273l-1.856 4.4h3.742l-1.856-4.4h-.03zm9.868 8.273V38.74h4.473c1.13 0 2.002.273 2.616.818.614.536.921 1.291.921 2.266 0 .77-.2 1.408-.599 1.914-.4.497-.975.833-1.725 1.009.497.156.906.53 1.228 1.125l1.724 3.172h-2.061l-1.783-3.289c-.175-.321-.385-.54-.628-.657-.234-.117-.536-.176-.906-.176h-1.389v4.122h-1.87zm1.871-5.51h2.28c1.364 0 2.046-.556 2.046-1.666 0-1.102-.682-1.652-2.046-1.652h-2.28v3.318zm11.438 5.51V38.74h1.871v4.56h.029l4.545-4.56h2.281l-5.014 4.955 5.262 5.349h-2.309l-4.765-4.765h-.029v4.765h-1.871zm12.994 0V38.74h6.855v1.49h-5.057v2.836h4.736v1.49h-4.736v2.997h5.057v1.49h-6.855zm14.423 0v-8.74h-3.537V38.74h8.945v1.564h-3.537v8.74h-1.871zm9.882 0V38.74h1.871v10.304h-1.871zm7.399 0V38.74h1.403l5.54 7.19v-7.19h1.739v10.304h-1.388l-5.554-7.22v7.22h-1.74zm19.177.146c-1.14 0-2.105-.214-2.894-.643a4.303 4.303 0 01-1.783-1.827c-.409-.79-.614-1.725-.614-2.806 0-1.092.21-2.032.629-2.821a4.35 4.35 0 011.812-1.842c.789-.438 1.734-.658 2.836-.658a6.29 6.29 0 012.031.322c.634.205 1.16.492 1.579.862l-.629 1.462a4.564 4.564 0 00-1.403-.775 5.062 5.062 0 00-1.578-.234c-1.092 0-1.92.317-2.485.95-.556.634-.833 1.545-.833 2.734 0 1.198.287 2.11.862 2.733.575.623 1.428.935 2.558.935.321 0 .648-.024.979-.073a7.275 7.275 0 001.009-.248v-2.397h-2.368v-1.389h3.932v4.955a7.23 7.23 0 01-1.696.556 9.487 9.487 0 01-1.944.204z" fill="#000"/></svg>
